src/assets/icons/icon-jason.svg

<svg fill="#000000" xmlns="http://www.w3.org/2000/svg"  viewBox="0 0 80 80" width="80px" height="80px"><path d="M 36 7.0175781 A 1.0001 1.0001 0 0 0 35 8.0175781 L 35 9 A 1.0001 1.0001 0 0 0 34.916016 9.0039062 C 33.011306 9.1646284 25.921064 9.9914487 19.978516 15.927734 C 13.812561 22.088471 13.12088 29.518871 13.001953 31.363281 A 1.0001 1.0001 0 0 0 13 31.427734 L 13 34 L 11 34 A 1.0001 1.0001 0 0 0 10 35 L 10 43 A 1.0001 1.0001 0 0 0 11 44 L 13.201172 44 C 14.543095 51.515904 17.684555 58.597805 22.210938 63.896484 C 26.908589 69.395655 33.106069 73 40.121094 73 C 47.086883 73 53.18413 69.353315 57.802734 63.837891 C 62.253197 58.523257 65.344924 51.447484 66.738281 44 L 69 44 A 1.0001 1.0001 0 0 0 70 43 L 70 35 A 1.0001 1.0001 0 0 0 69 34 L 66.941406 34 C 66.968947 31.90845 66.816168 24.726107 61.681641 18.158203 C 55.475863 10.218688 46.685094 9.2101261 45.056641 9.0546875 A 1.0001 1.0001 0 0 0 45 9.0507812 L 45 8.0175781 A 1.0001 1.0001 0 0 0 44 7.0175781 L 36 7.0175781 z M 37 9.0175781 L 39 9.0175781 A 1 1 0 0 0 40 10 A 1 1 0 0 0 41 9.0175781 L 43 9.0175781 L 43 21 L 37 21 L 37 9.0175781 z M 35 11.013672 L 35 22 A 1.0001 1.0001 0 0 0 36 23 L 44 23 A 1.0001 1.0001 0 0 0 45 22 L 45 11.066406 C 46.665768 11.231405 54.500062 12.21921 60.105469 19.390625 C 64.821717 25.42348 64.967325 32.066451 64.941406 33.986328 A 1.0001 1.0001 0 0 0 64.941406 34 L 60 34 A 1.0001 1.0001 0 0 0 59 35 L 59 43 A 1.0001 1.0001 0 0 0 60 44 L 64.6875 44 C 63.316589 51.000578 60.382447 57.643143 56.269531 62.554688 C 51.925885 67.741764 46.391305 71 40.121094 71 C 33.789119 71 28.146568 67.767236 23.730469 62.597656 C 19.54595 57.69917 16.571468 51.05521 15.25 44 L 20 44 A 1.0001 1.0001 0 0 0 21 43 L 21 35 A 1.0001 1.0001 0 0 0 20 34 L 15 34 L 15 31.474609 C 15.11103 29.765475 15.754176 22.97738 21.392578 17.34375 C 26.796217 11.945805 33.195965 11.169391 35 11.013672 z M 40 12 A 1 1 0 0 0 40 14 A 1 1 0 0 0 40 12 z M 50.609375 14.150391 C 50.069375 14.050391 49.549219 14.409219 49.449219 14.949219 C 49.349219 15.489219 49.71 16.009375 50.25 16.109375 C 50.31 16.119375 50.369687 16.130859 50.429688 16.130859 C 50.909688 16.130859 51.330156 15.790547 51.410156 15.310547 C 51.509156 14.760547 51.149375 14.250391 50.609375 14.150391 z M 28.806641 14.341797 C 28.677156 14.327891 28.542406 14.340859 28.410156 14.380859 C 27.880156 14.540859 27.580234 15.099141 27.740234 15.619141 L 27.740234 15.630859 C 27.870234 16.060859 28.269219 16.339844 28.699219 16.339844 C 28.799219 16.339844 28.889234 16.320781 28.990234 16.300781 C 29.519234 16.140781 29.819156 15.580781 29.660156 15.050781 C 29.540156 14.653281 29.195094 14.383516 28.806641 14.341797 z M 40 16 A 1 1 0 0 0 40 18 A 1 1 0 0 0 40 16 z M 49.888672 18.080078 C 49.348672 17.980078 48.829516 18.340625 48.728516 18.890625 C 48.629516 19.430625 48.989297 19.950781 49.529297 20.050781 C 49.599297 20.060781 49.660703 20.060547 49.720703 20.060547 C 50.189703 20.060547 50.608219 19.730234 50.699219 19.240234 C 50.798219 18.700234 50.438672 18.180078 49.888672 18.080078 z M 29.957031 18.171875 C 29.8275 18.157969 29.693047 18.170938 29.560547 18.210938 C 29.031547 18.370938 28.730625 18.930937 28.890625 19.460938 C 29.020625 19.890937 29.419609 20.169922 29.849609 20.169922 C 29.939609 20.169922 30.040625 20.150859 30.140625 20.130859 C 30.670625 19.970859 30.970547 19.410859 30.810547 18.880859 C 30.690547 18.483359 30.345625 18.213594 29.957031 18.171875 z M 23.021484 21.005859 C 22.891391 21.017891 22.761172 21.054141 22.638672 21.119141 C 22.148672 21.379141 21.968516 21.980703 22.228516 22.470703 C 22.409516 22.810703 22.750375 23 23.109375 23 C 23.270375 23 23.430078 22.960859 23.580078 22.880859 C 24.069078 22.620859 24.250234 22.019297 23.990234 21.529297 C 23.802734 21.161797 23.411766 20.969766 23.021484 21.005859 z M 56.087891 21.005859 C 55.69775 20.969766 55.306641 21.161797 55.119141 21.529297 C 54.858141 22.019297 55.039297 22.620859 55.529297 22.880859 C 55.679297 22.960859 55.84 23 56 23 C 56.359 23 56.700859 22.810703 56.880859 22.470703 C 57.140859 21.980703 56.960703 21.379141 56.470703 21.119141 C 56.347953 21.054141 56.217937 21.017891 56.087891 21.005859 z M 31.105469 22.001953 C 30.975938 21.988047 30.843438 21.999063 30.710938 22.039062 C 30.180938 22.199063 29.879062 22.759062 30.039062 23.289062 C 30.169062 23.719062 30.569 24 31 24 C 31.09 24 31.188063 23.990937 31.289062 23.960938 C 31.818062 23.800937 32.120937 23.240938 31.960938 22.710938 C 31.840937 22.313438 31.494062 22.043672 31.105469 22.001953 z M 49.179688 22.019531 C 48.629688 21.919531 48.120531 22.280313 48.019531 22.820312 C 47.920531 23.370312 48.279359 23.890234 48.818359 23.990234 C 48.879359 24.000234 48.939 24 49 24 C 49.47 24 49.898516 23.659688 49.978516 23.179688 C 50.078516 22.639688 49.719687 22.109531 49.179688 22.019531 z M 59.164062 23.550781 C 58.910187 23.522031 58.644688 23.589766 58.429688 23.759766 C 57.999687 24.099766 57.919531 24.729922 58.269531 25.169922 C 58.459531 25.419922 58.760781 25.539062 59.050781 25.539062 C 59.270781 25.539063 59.489922 25.480078 59.669922 25.330078 C 60.099922 24.990078 60.180078 24.359922 59.830078 23.919922 C 59.660578 23.704922 59.417938 23.579531 59.164062 23.550781 z M 19.945312 23.552734 C 19.691688 23.582734 19.449297 23.709688 19.279297 23.929688 C 18.928297 24.359688 19.009453 24.990078 19.439453 25.330078 C 19.620453 25.470078 19.839594 25.539062 20.058594 25.539062 C 20.348594 25.539062 20.649844 25.419922 20.839844 25.169922 C 21.189844 24.729922 21.109687 24.099766 20.679688 23.759766 C 20.465187 23.589766 20.198937 23.522734 19.945312 23.552734 z M 34 26 C 33.45 26 33 26.45 33 27 C 33 27.55 33.45 28 34 28 C 34.55 28 35 27.55 35 27 C 35 26.45 34.55 26 34 26 z M 38 26 C 37.45 26 37 26.45 37 27 C 37 27.55 37.45 28 38 28 C 38.55 28 39 27.55 39 27 C 39 26.45 38.55 26 38 26 z M 42 26 C 41.45 26 41 26.45 41 27 C 41 27.55 41.45 28 42 28 C 42.55 28 43 27.55 43 27 C 43 26.45 42.55 26 42 26 z M 46 26 C 45.45 26 45 26.45 45 27 C 45 27.55 45.45 28 46 28 C 46.55 28 47 27.55 47 27 C 47 26.45 46.55 26 46 26 z M 18.150391 27.113281 C 17.764141 27.17375 17.435078 27.454375 17.330078 27.859375 C 17.190078 28.389375 17.520781 28.940313 18.050781 29.070312 C 18.140781 29.100313 18.220781 29.099609 18.300781 29.099609 C 18.750781 29.099609 19.149531 28.799609 19.269531 28.349609 C 19.409531 27.809609 19.080781 27.270859 18.550781 27.130859 C 18.415781 27.098359 18.279141 27.093125 18.150391 27.113281 z M 60.958984 27.117188 C 60.830219 27.098437 60.695547 27.105625 60.560547 27.140625 C 60.030547 27.270625 59.699844 27.809609 59.839844 28.349609 C 59.959844 28.799609 60.359547 29.099609 60.810547 29.099609 C 60.890547 29.099609 60.970547 29.090312 61.060547 29.070312 C 61.591547 28.940312 61.91125 28.389375 61.78125 27.859375 C 61.6755 27.454375 61.345281 27.173438 60.958984 27.117188 z M 30 30 L 39.21875 36.5625 L 40 37.119141 L 40.78125 36.5625 L 50 30 L 40 33.1875 L 30 30 z M 12 36 L 13.832031 36 A 1.0001 1.0001 0 0 0 14.158203 36 L 19 36 L 19 42 L 14.158203 42 A 1.0001 1.0001 0 0 0 13.826172 42 L 12 42 L 12 40 A 1 1 0 0 0 12 38 L 12 36 z M 61 36 L 68 36 L 68 38 A 1 1 0 0 0 68 40 L 68 42 L 66.109375 42 A 1.0001 1.0001 0 0 0 65.78125 42 L 61 42 L 61 36 z M 30 36.929688 C 27 36.929688 24 37.716969 24 39.292969 C 24 42.444969 26.686 45 30 45 C 33.314 45 36 42.444969 36 39.292969 C 36 37.716969 33 36.929688 30 36.929688 z M 50 36.929688 C 47 36.929688 44 37.716969 44 39.292969 C 44 42.444969 46.686 45 50 45 C 53.314 45 56 42.444969 56 39.292969 C 56 37.716969 53 36.929688 50 36.929688 z M 16 38 A 1 1 0 0 0 16 40 A 1 1 0 0 0 16 38 z M 64 38 A 1 1 0 0 0 64 40 A 1 1 0 0 0 64 38 z M 26 47 C 24.604 47.709 23.323516 48.793688 22.353516 50.179688 C 21.374516 51.561688 20.71725 53.212891 20.40625 54.962891 L 23.595703 55.037109 C 23.364703 53.704109 23.395156 52.271813 23.785156 50.882812 C 24.166156 49.490813 24.92 48.137 26 47 z M 54 47 C 55.08 48.137 55.833844 49.490812 56.214844 50.882812 C 56.604844 52.271813 56.634297 53.704109 56.404297 55.037109 L 59.59375 54.962891 C 59.28275 53.211891 58.625484 51.561687 57.646484 50.179688 C 56.676484 48.793687 55.396 47.709 54 47 z M 40.001953 48 C 40.001953 48 35 49.737 35 51 L 45 51 C 45 49.338 40.001953 48 40.001953 48 z M 50 51.998047 C 49.742625 51.998047 49.484063 52.094062 49.289062 52.289062 C 48.898063 52.679062 48.898063 53.320937 49.289062 53.710938 C 49.489062 53.900938 49.74 54 50 54 C 50.26 54 50.510937 53.900937 50.710938 53.710938 C 51.100937 53.320938 51.100938 52.689062 50.710938 52.289062 C 50.515438 52.094063 50.257375 51.998047 50 51.998047 z M 29.912109 52.005859 C 29.657109 52.029609 29.408516 52.149375 29.228516 52.359375 C 28.879516 52.779375 28.929375 53.409531 29.359375 53.769531 C 29.550375 53.929531 29.77 54 30 54 C 30.29 54 30.569531 53.880625 30.769531 53.640625 C 31.119531 53.220625 31.058672 52.590469 30.638672 52.230469 C 30.428672 52.055469 30.167109 51.982109 29.912109 52.005859 z M 45.134766 53.007812 C 45.006469 52.989219 44.872484 52.994297 44.740234 53.029297 C 44.210234 53.179297 43.888297 53.729766 44.029297 54.259766 C 44.148297 54.709766 44.56 55 45 55 C 45.08 55 45.170766 54.990703 45.259766 54.970703 C 45.789766 54.820703 46.10875 54.280234 45.96875 53.740234 C 45.85625 53.342734 45.519656 53.063594 45.134766 53.007812 z M 34.798828 53.019531 C 34.414969 53.097344 34.102031 53.398047 34.019531 53.810547 C 33.915768 54.356816 34.264074 54.871139 34.800781 54.980469 C 34.870781 54.990469 34.939 55 35 55 C 35.47 55 35.880469 54.669219 35.980469 54.199219 C 36.091469 53.649219 35.741172 53.129531 35.201172 53.019531 C 35.063422 52.992031 34.926781 52.993594 34.798828 53.019531 z M 52.824219 54.828125 C 52.569219 54.828125 52.314141 54.924141 52.119141 55.119141 C 51.728141 55.509141 51.728141 56.149062 52.119141 56.539062 C 52.318141 56.729063 52.569078 56.830078 52.830078 56.830078 C 53.080078 56.830078 53.339297 56.729062 53.529297 56.539062 C 53.919297 56.149062 53.919297 55.509141 53.529297 55.119141 C 53.334297 54.924141 53.079219 54.828125 52.824219 54.828125 z M 27.34375 55.076172 C 27.088875 55.099922 26.844922 55.219687 26.669922 55.429688 C 26.319922 55.859688 26.370781 56.489844 26.800781 56.839844 C 26.979781 56.999844 27.210453 57.070312 27.439453 57.070312 C 27.720453 57.070312 28.010938 56.950938 28.210938 56.710938 C 28.559938 56.290938 28.500078 55.660781 28.080078 55.300781 C 27.864578 55.125781 27.598625 55.052422 27.34375 55.076172 z M 46.167969 56.875 C 46.039062 56.857188 45.904531 56.865391 45.769531 56.900391 C 45.240531 57.040391 44.920547 57.589141 45.060547 58.119141 C 45.180547 58.569141 45.589297 58.869141 46.029297 58.869141 C 46.119297 58.869141 46.199062 58.850078 46.289062 58.830078 C 46.818062 58.690078 47.14 58.139375 47 57.609375 C 46.8875 57.204375 46.554688 56.928438 46.167969 56.875 z M 34.013672 56.939453 C 33.631359 57.017266 33.312969 57.317969 33.230469 57.730469 C 33.130469 58.270469 33.479531 58.800391 34.019531 58.900391 C 34.079531 58.920391 34.148703 58.919922 34.220703 58.919922 C 34.679703 58.919922 35.100172 58.589141 35.201172 58.119141 C 35.301172 57.579141 34.950156 57.049453 34.410156 56.939453 C 34.275156 56.911953 34.141109 56.913516 34.013672 56.939453 z M 47.201172 60.738281 C 47.071484 60.719687 46.935781 60.724766 46.800781 60.759766 C 46.270781 60.909766 45.949844 61.450234 46.089844 61.990234 L 46.099609 61.990234 C 46.209609 62.440234 46.619594 62.730469 47.058594 62.730469 C 47.148594 62.730469 47.228359 62.719219 47.318359 62.699219 C 47.848359 62.549219 48.169297 62.000703 48.029297 61.470703 C 47.924297 61.073203 47.590234 60.794062 47.201172 60.738281 z M 33.630859 60.859375 C 33.090859 60.759375 32.558219 61.110391 32.449219 61.650391 C 32.338219 62.190391 32.688516 62.720078 33.228516 62.830078 C 33.299516 62.840078 33.369687 62.839844 33.429688 62.839844 C 33.898688 62.839844 34.319156 62.519062 34.410156 62.039062 C 34.520156 61.499063 34.170859 60.969375 33.630859 60.859375 z M 48.230469 64.605469 C 48.100797 64.587656 47.965078 64.595859 47.830078 64.630859 C 47.300078 64.770859 46.980859 65.319609 47.130859 65.849609 C 47.240859 66.299609 47.649844 66.599609 48.089844 66.599609 C 48.179844 66.599609 48.259609 66.580547 48.349609 66.560547 C 48.879609 66.420547 49.199594 65.869844 49.058594 65.339844 C 48.954344 64.934844 48.619484 64.658906 48.230469 64.605469 z M 32.443359 64.789062 C 32.061797 64.866406 31.744922 65.165312 31.669922 65.570312 C 31.558922 66.110313 31.909219 66.64 32.449219 66.75 C 32.519219 66.76 32.580391 66.769531 32.650391 66.769531 C 33.109391 66.769531 33.530859 66.440938 33.630859 65.960938 C 33.740859 65.420937 33.379844 64.899062 32.839844 64.789062 C 32.704844 64.761563 32.570547 64.763281 32.443359 64.789062 z"/></svg>

<svg xmlns="http://www.w3.org/2000/svg" viewBox="0 0 80 80">
  <path d="M36 7.01758a1.0001 1.0001 0 0 0-1 1V9a1.0001 1.0001 0 0 0-.08398.0039c-1.90471.16073-8.99496.98755-14.9375 6.92383-6.16596 6.16074-6.85764 13.59114-6.97657 15.43555A1.0001 1.0001 0 0 0 13 31.42773V34h-2a1.0001 1.0001 0 0 0-1 1v8a1.0001 1.0001 0 0 0 1 1h2.20117c1.34192 7.5159 4.48339 14.5978 9.00977 19.89648C26.90859 69.39566 33.10607 73 40.12109 73c6.9658 0 13.06304-3.64669 17.68164-9.1621C62.2532 58.52325 65.34493 51.44747 66.73828 44H69a1.0001 1.0001 0 0 0 1-1v-8a1.0001 1.0001 0 0 0-1-1h-2.0586c.02755-2.09155-.12523-9.2739-5.25976-15.8418-6.20578-7.93951-14.99655-8.94807-16.625-9.10351A1.0001 1.0001 0 0 0 45 9.05079V8.01757a1.0001 1.0001 0 0 0-1-1h-8zm1 2h2A1 1 0 0 0 40 10a1 1 0 0 0 1-.98242h2V21h-6V9.01758zm-2 1.9961V22a1.0001 1.0001 0 0 0 1 1h8a1.0001 1.0001 0 0 0 1-1V11.0664c1.66577.165 9.50006 1.15281 15.10547 8.32423 4.71625 6.03285 4.86186 12.67582 4.83594 14.5957a1.0001 1.0001 0 0 0 0 .01367H60a1.0001 1.0001 0 0 0-1 1v8a1.0001 1.0001 0 0 0 1 1h4.6875c-1.37091 7.00058-4.30505 13.64314-8.41797 18.55469C51.92588 67.74176 46.3913 71 40.1211 71c-6.33197 0-11.97452-3.23276-16.39062-8.40234C19.54595 57.69917 16.57147 51.0552 15.25 44H20a1.0001 1.0001 0 0 0 1-1v-8a1.0001 1.0001 0 0 0-1-1h-5v-2.5254c.11103-1.70913.75418-8.49722 6.39258-14.13085C26.79622 11.94581 33.19597 11.16939 35 11.01367zM40 12a1 1 0 0 0 0 2 1 1 0 0 0 0-2zm10.60938 2.1504c-.54-.1-1.06016.25882-1.16016.79882-.1.54.26078 1.06015.80078 1.16015.06.01.11969.02149.17969.02149.48 0 .90047-.34031.98047-.82031.099-.55-.26078-1.06016-.80078-1.16016zm-21.80274.1914c-.12948-.0139-.26423-.00094-.39648.03906-.53.16-.82993.71828-.66993 1.23828v.01172c.13.43.52899.70898.95899.70898.1 0 .19001-.01906.29101-.03906.529-.16.82893-.72.66993-1.25-.12-.3975-.46507-.66726-.85352-.70898zM40 16a1 1 0 0 0 0 2 1 1 0 0 0 0-2zm9.88867 2.08008c-.54-.1-1.05915.26055-1.16015.81055-.099.54.26078 1.06015.80078 1.16015.07.01.1314.00977.1914.00977.469 0 .88752-.33032.97852-.82032.099-.54-.26055-1.06015-.81055-1.16015zm-19.93164.0918c-.12953-.01391-.26398-.00094-.39648.03906-.529.16-.82992.72-.66992 1.25.13.43.52898.70898.95898.70898.09 0 .19102-.01906.29102-.03906.53-.16.82992-.72.66992-1.25-.12-.3975-.46493-.66727-.85352-.70898zm-6.93555 2.83398c-.13009.01203-.2603.04828-.3828.11328-.49.26-.67016.86156-.41016 1.35156.181.34.52185.5293.88086.5293.161 0 .3207-.03914.4707-.11914.489-.26.67015-.86156.41015-1.35156-.1875-.3675-.57846-.55953-.96875-.52344zm33.06641 0c-.39014-.0361-.78125.15594-.96875.52344-.261.49-.07984 1.09156.41016 1.35156.15.08.3107.11914.4707.11914.359 0 .70086-.1893.88086-.5293.26-.49.07984-1.09156-.41016-1.35156-.12275-.065-.25276-.10125-.3828-.11328zm-24.98242.9961c-.12953-.01391-.26203-.0029-.39453.0371-.53.16-.83188.72-.67188 1.25.13.43.52994.71094.96094.71094.09 0 .18806-.00906.28906-.03906.529-.16.83188-.72.67188-1.25-.12-.3975-.46688-.66727-.85547-.70899zm18.07422.01757c-.55-.1-1.05916.26078-1.16016.80078-.099.55.25983 1.06992.79883 1.16992.061.01.12064.00977.18164.00977.47 0 .89852-.34031.97852-.82031.1-.54-.25883-1.07016-.79883-1.16016zm9.98437 1.53125c-.25387-.02875-.51937.03899-.73437.20899-.43.34-.51016.97015-.16016 1.41015.19.25.49125.36914.78125.36914.22 0 .43914-.05898.61914-.20898.43-.34.51016-.97016.16016-1.41016-.1695-.215-.41214-.34039-.66602-.36914zm-39.21875.00195c-.25362.03-.49601.15696-.66601.37696-.351.43-.26985 1.06039.16015 1.40039.181.14.40014.20898.61914.20898.29 0 .59125-.11914.78125-.36914.35-.44.26985-1.07015-.16015-1.41015-.2145-.17-.48075-.23704-.73438-.20704zM34 26c-.55 0-1 .45-1 1s.45 1 1 1 1-.45 1-1-.45-1-1-1zm4 0c-.55 0-1 .45-1 1s.45 1 1 1 1-.45 1-1-.45-1-1-1zm4 0c-.55 0-1 .45-1 1s.45 1 1 1 1-.45 1-1-.45-1-1-1zm4 0c-.55 0-1 .45-1 1s.45 1 1 1 1-.45 1-1-.45-1-1-1zm-27.8496 1.11328c-.38626.06047-.71532.3411-.82032.7461-.14.53.1907 1.08093.7207 1.21093.09.03.17.0293.25.0293.45 0 .84875-.3.96875-.75.14-.54-.18875-1.07875-.71875-1.21875-.135-.0325-.27164-.03773-.40039-.01758zm42.80858.0039c-.12876-.01874-.26343-.01156-.39843.02344-.53.13-.8607.66899-.7207 1.20899.12.45.5197.75.9707.75.08 0 .16-.0093.25-.0293.531-.13.8507-.68093.7207-1.21093-.10575-.405-.43597-.68594-.82227-.7422zM30 30l9.21875 6.5625.78125.55664.78125-.55664L50 30l-10 3.1875L30 30zm-18 6h1.83203a1.0001 1.0001 0 0 0 .32617 0H19v6h-4.8418a1.0001 1.0001 0 0 0-.33203 0H12v-2a1 1 0 0 0 0-2v-2zm49 0h7v2a1 1 0 0 0 0 2v2h-1.89063a1.0001 1.0001 0 0 0-.32812 0H61v-6zm-31 .92969c-3 0-6 .78728-6 2.36328C24 42.44497 26.686 45 30 45s6-2.55503 6-5.70703c0-1.576-3-2.36328-6-2.36328zm20 0c-3 0-6 .78728-6 2.36328C44 42.44497 46.686 45 50 45s6-2.55503 6-5.70703c0-1.576-3-2.36328-6-2.36328zM16 38a1 1 0 0 0 0 2 1 1 0 0 0 0-2zm48 0a1 1 0 0 0 0 2 1 1 0 0 0 0-2zm-38 9c-1.396.709-2.67648 1.79369-3.64648 3.17969-.979 1.382-1.63627 3.0332-1.94727 4.7832l3.18945.07422c-.231-1.333-.20054-2.7653.18946-4.1543C24.16616 49.49081 24.92 48.137 26 47zm28 0c1.08 1.137 1.83384 2.49081 2.21484 3.88281.39 1.389.41946 2.8213.18946 4.1543l3.18945-.07422c-.311-1.751-.96827-3.4012-1.94727-4.7832C56.67648 48.79369 55.396 47.709 54 47zm-13.99805 1S35 49.737 35 51h10c0-1.662-4.99805-3-4.99805-3zM50 51.99805c-.25738 0-.51594.09601-.71094.29101-.391.39-.391 1.03188 0 1.42188.2.19.45094.28906.71094.28906s.51094-.09906.71094-.28906c.39-.39.39-1.02188 0-1.42188-.1955-.195-.45356-.29101-.71094-.29101zm-20.0879.0078c-.255.02376-.50358.14352-.68358.35352-.349.42-.29914 1.05016.13086 1.41016.191.16.41062.23047.64062.23047.29 0 .56953-.11937.76953-.35938.35-.42.28914-1.05015-.13086-1.41015-.21-.175-.47156-.24836-.72656-.22461zm15.22267 1.00196c-.1283-.0186-.26229-.01351-.39454.02149-.53.15-.85193.70047-.71093 1.23047.119.45.5307.74023.9707.74023.08 0 .17077-.0093.25977-.0293.53-.15.84898-.69047.70898-1.23047-.1125-.3975-.4491-.67664-.83398-.73242zm-10.33594.01172c-.38386.07781-.6968.37852-.7793.79102-.10376.54627.24454 1.06059.78125 1.16992.07.01.13822.01953.19922.01953.47 0 .88047-.33078.98047-.80078.111-.55-.2393-1.06969-.7793-1.17969-.13775-.0275-.27439-.02594-.40234 0zm18.02539 1.8086c-.255 0-.51008.09601-.70508.29101-.391.39-.391 1.02992 0 1.41992.199.19.44994.29102.71094.29102.25 0 .50922-.10102.69922-.29102.39-.39.39-1.02992 0-1.41992-.195-.195-.45008-.29102-.70508-.29102zm-25.48047.24804c-.25487.02375-.49883.14352-.67383.35352-.35.43-.29914 1.06015.13086 1.41015.179.16.40967.23047.63867.23047.281 0 .57149-.11937.77149-.35937.349-.42.28914-1.05016-.13086-1.41016-.2155-.175-.48146-.24836-.73633-.2246zM46.16797 56.875c-.1289-.01781-.26344-.0096-.39844.0254-.529.14-.84898.68874-.70898 1.21874.12.45.52875.75.96875.75.09 0 .16976-.01906.25976-.03906.529-.14.85094-.6907.71094-1.2207-.1125-.405-.44531-.68094-.83203-.73438zm-12.1543.06445c-.38231.07782-.7007.37852-.7832.79102-.1.54.24906 1.06992.78906 1.16992.06.02.12917.01953.20117.01953.459 0 .87947-.33078.98047-.80078.1-.54-.25101-1.06969-.79101-1.17969a.99041.99041 0 0 0-.39649 0zm13.1875 3.79883c-.12969-.0186-.26539-.01351-.40039.02149-.53.15-.85094.69046-.71094 1.23046h.00977c.11.45.51998.74024.95898.74024.09 0 .16977-.01125.25977-.03125.53-.15.85094-.69852.71094-1.22852-.105-.3975-.43907-.67664-.82813-.73242zm-13.57031.1211c-.54-.1-1.07264.25101-1.18164.79101-.111.54.2393 1.06969.7793 1.17969.071.01.14117.00976.20117.00976.469 0 .88947-.32078.98047-.80078.11-.54-.2393-1.06968-.7793-1.17968zm14.5996 3.74609c-.12966-.01781-.26538-.00961-.40038.02539-.53.14-.84922.68875-.69922 1.21875.11.45.51898.75.95898.75.09 0 .16977-.01906.25977-.03906.53-.14.84998-.6907.70898-1.2207-.10425-.405-.4391-.68094-.82812-.73438zm-15.7871.1836c-.38156.07734-.69844.37624-.77344.78124-.111.54.2393 1.06969.7793 1.17969.07.01.13117.01953.20117.01953.459 0 .88047-.3286.98047-.8086.11-.54-.25102-1.06187-.79102-1.17187-.135-.0275-.2693-.02578-.39648 0z"/>
</svg>
